X: 41760
T: Vanishing Lake
R: jig
M: 6/8
K: Aminor
|:e/d/|cBc ABc|BAB G>AB|cBc dcd|e3 e2g|
a2a age|gag g2e|f2g fed|e3 e2d|
c2A BAG|A3 Aed|c2A BAG|E3 Eed|cee Bee|AA/A/A A2:|
E/E/|EAA EAA|EBB EBB|E2c cBA|B3 B2E/E/|
EAA EAA|EBB EBB|cBc deg|e3 ec'b|
a2a age|gag g2e|f2g fed|e3 efd|
c2A BcB|A3 Aed|c2A BAG|E3 Eed|cee Bee|AA/A/A A2:|

